images/3234673.svg

<?xml version="1.0" encoding="UTF-8"?>
<svg xmlns="http://www.w3.org/2000/svg" xmlns:xlink="http://www.w3.org/1999/xlink" width="300pt" height="300pt" viewBox="0 0 300 300" version="1.1">
<defs>
<g>
<symbol overflow="visible" id="glyph0-0">
<path style="stroke:none;" d="M 0.453125 1.59375 L 0.453125 -6.34375 L 4.953125 -6.34375 L 4.953125 1.59375 Z M 0.953125 1.09375 L 4.453125 1.09375 L 4.453125 -5.84375 L 0.953125 -5.84375 Z M 0.953125 1.09375 "/>
</symbol>
<symbol overflow="visible" id="glyph0-1">
<path style="stroke:none;" d="M 3.546875 -5.953125 C 2.898438 -5.953125 2.382812 -5.710938 2 -5.234375 C 1.625 -4.753906 1.4375 -4.101562 1.4375 -3.28125 C 1.4375 -2.445312 1.625 -1.789062 2 -1.3125 C 2.382812 -0.832031 2.898438 -0.59375 3.546875 -0.59375 C 4.191406 -0.59375 4.703125 -0.832031 5.078125 -1.3125 C 5.453125 -1.789062 5.640625 -2.445312 5.640625 -3.28125 C 5.640625 -4.101562 5.453125 -4.753906 5.078125 -5.234375 C 4.703125 -5.710938 4.191406 -5.953125 3.546875 -5.953125 Z M 3.546875 -6.6875 C 4.460938 -6.6875 5.195312 -6.375 5.75 -5.75 C 6.300781 -5.132812 6.578125 -4.3125 6.578125 -3.28125 C 6.578125 -2.238281 6.300781 -1.410156 5.75 -0.796875 C 5.195312 -0.179688 4.460938 0.125 3.546875 0.125 C 2.617188 0.125 1.878906 -0.179688 1.328125 -0.796875 C 0.773438 -1.410156 0.5 -2.238281 0.5 -3.28125 C 0.5 -4.3125 0.773438 -5.132812 1.328125 -5.75 C 1.878906 -6.375 2.617188 -6.6875 3.546875 -6.6875 Z M 3.546875 -6.6875 "/>
</symbol>
<symbol overflow="visible" id="glyph0-2">
<path style="stroke:none;" d="M 0.890625 -6.5625 L 2.078125 -6.5625 L 4.984375 -1.078125 L 4.984375 -6.5625 L 5.84375 -6.5625 L 5.84375 0 L 4.65625 0 L 1.75 -5.484375 L 1.75 0 L 0.890625 0 Z M 0.890625 -6.5625 "/>
</symbol>
<symbol overflow="visible" id="glyph0-3">
<path style="stroke:none;" d="M 0.890625 -6.5625 L 1.765625 -6.5625 L 1.765625 -3.875 L 5 -3.875 L 5 -6.5625 L 5.890625 -6.5625 L 5.890625 0 L 5 0 L 5 -3.125 L 1.765625 -3.125 L 1.765625 0 L 0.890625 0 Z M 0.890625 -6.5625 "/>
</symbol>
</g>
</defs>
<g id="surface29169">
<rect x="0" y="0" width="300" height="300" style="fill:rgb(100%,100%,100%);fill-opacity:1;stroke:none;"/>
<path style="fill:none;stroke-width:1.2;stroke-linecap:butt;stroke-linejoin:miter;stroke:rgb(0%,0%,0%);stroke-opacity:1;stroke-miterlimit:10;" d="M 43.941406 105.113281 L 39.59375 116.351562 "/>
<path style="fill:none;stroke-width:1.2;stroke-linecap:butt;stroke-linejoin:miter;stroke:rgb(100%,0%,0%);stroke-opacity:1;stroke-miterlimit:10;" d="M 39.59375 116.351562 L 35.25 127.59375 "/>
<path style="fill:none;stroke-width:1.2;stroke-linecap:butt;stroke-linejoin:miter;stroke:rgb(100%,0%,0%);stroke-opacity:1;stroke-miterlimit:10;" d="M 35.25 127.59375 L 42.8125 136.976562 "/>
<path style="fill:none;stroke-width:1.2;stroke-linecap:butt;stroke-linejoin:miter;stroke:rgb(0%,0%,0%);stroke-opacity:1;stroke-miterlimit:10;" d="M 42.8125 136.976562 L 50.375 146.363281 "/>
<path style=" stroke:none;fill-rule:nonzero;fill:rgb(100%,100%,100%);fill-opacity:1;" d="M 31.25 122.09375 L 39.25 122.09375 L 39.25 133.09375 L 31.25 133.09375 Z M 31.25 122.09375 "/>
<g style="fill:rgb(100%,0%,0%);fill-opacity:1;">
  <use xlink:href="#glyph0-1" x="31.25" y="130.756836"/>
</g>
<path style="fill:none;stroke-width:1.2;stroke-linecap:butt;stroke-linejoin:miter;stroke:rgb(0%,0%,0%);stroke-opacity:1;stroke-miterlimit:10;" d="M 50.375 146.363281 L 74.191406 142.648438 "/>
<path style="fill:none;stroke-width:1.2;stroke-linecap:butt;stroke-linejoin:miter;stroke:rgb(0%,0%,0%);stroke-opacity:1;stroke-miterlimit:10;" d="M 53.628906 151.59375 L 72.683594 148.621094 "/>
<path style="fill:none;stroke-width:1.2;stroke-linecap:butt;stroke-linejoin:miter;stroke:rgb(0%,0%,0%);stroke-opacity:1;stroke-miterlimit:10;" d="M 41.683594 168.84375 L 50.375 146.363281 "/>
<path style="fill:none;stroke-width:1.2;stroke-linecap:butt;stroke-linejoin:miter;stroke:rgb(0%,0%,0%);stroke-opacity:1;stroke-miterlimit:10;" d="M 74.191406 142.648438 L 89.3125 161.414062 "/>
<path style="fill:none;stroke-width:1.2;stroke-linecap:butt;stroke-linejoin:miter;stroke:rgb(0%,0%,0%);stroke-opacity:1;stroke-miterlimit:10;" d="M 89.3125 161.414062 L 80.621094 183.898438 "/>
<path style="fill:none;stroke-width:1.2;stroke-linecap:butt;stroke-linejoin:miter;stroke:rgb(0%,0%,0%);stroke-opacity:1;stroke-miterlimit:10;" d="M 93.734375 165.707031 L 86.78125 183.695312 "/>
<path style="fill:none;stroke-width:1.2;stroke-linecap:butt;stroke-linejoin:miter;stroke:rgb(0%,0%,0%);stroke-opacity:1;stroke-miterlimit:10;" d="M 113.378906 162.734375 L 89.3125 161.414062 "/>
<path style="fill:none;stroke-width:1.2;stroke-linecap:butt;stroke-linejoin:miter;stroke:rgb(0%,0%,0%);stroke-opacity:1;stroke-miterlimit:10;" d="M 80.621094 183.898438 L 56.808594 187.609375 "/>
<path style="fill:none;stroke-width:1.2;stroke-linecap:butt;stroke-linejoin:miter;stroke:rgb(0%,0%,0%);stroke-opacity:1;stroke-miterlimit:10;" d="M 80.621094 183.898438 L 89.96875 191.503906 "/>
<path style="fill:none;stroke-width:1.2;stroke-linecap:butt;stroke-linejoin:miter;stroke:rgb(0%,0%,100%);stroke-opacity:1;stroke-miterlimit:10;" d="M 89.96875 191.503906 L 99.316406 199.109375 "/>
<path style="fill:none;stroke-width:1.2;stroke-linecap:butt;stroke-linejoin:miter;stroke:rgb(0%,0%,0%);stroke-opacity:1;stroke-miterlimit:10;" d="M 56.808594 187.609375 L 41.683594 168.84375 "/>
<path style="fill:none;stroke-width:1.2;stroke-linecap:butt;stroke-linejoin:miter;stroke:rgb(0%,0%,0%);stroke-opacity:1;stroke-miterlimit:10;" d="M 59.710938 182.175781 L 47.609375 167.160156 "/>
<path style="fill:none;stroke-width:1.2;stroke-linecap:butt;stroke-linejoin:miter;stroke:rgb(0%,0%,100%);stroke-opacity:1;stroke-miterlimit:10;" d="M 99.316406 199.109375 L 109.441406 192.570312 "/>
<path style="fill:none;stroke-width:1.2;stroke-linecap:butt;stroke-linejoin:miter;stroke:rgb(0%,0%,0%);stroke-opacity:1;stroke-miterlimit:10;" d="M 109.441406 192.570312 L 119.5625 186.03125 "/>
<path style=" stroke:none;fill-rule:nonzero;fill:rgb(100%,100%,100%);fill-opacity:1;" d="M 92.316406 193.609375 L 106.316406 193.609375 L 106.316406 204.609375 L 92.316406 204.609375 Z M 92.316406 193.609375 "/>
<g style="fill:rgb(0%,0%,100%);fill-opacity:1;">
  <use xlink:href="#glyph0-2" x="92.316406" y="202.272461"/>
  <use xlink:href="#glyph0-3" x="99.293945" y="202.272461"/>
</g>
<path style="fill:none;stroke-width:1.2;stroke-linecap:butt;stroke-linejoin:miter;stroke:rgb(0%,0%,0%);stroke-opacity:1;stroke-miterlimit:10;" d="M 119.5625 186.03125 L 113.378906 162.734375 "/>
<path style="fill:none;stroke-width:1.2;stroke-linecap:butt;stroke-linejoin:miter;stroke:rgb(0%,0%,0%);stroke-opacity:1;stroke-miterlimit:10;" d="M 113.464844 185.15625 L 108.515625 166.519531 "/>
<path style="fill:none;stroke-width:1.2;stroke-linecap:butt;stroke-linejoin:miter;stroke:rgb(0%,0%,0%);stroke-opacity:1;stroke-miterlimit:10;" d="M 113.378906 162.734375 L 128.59375 144.039062 "/>
<path style="fill:none;stroke-width:1.2;stroke-linecap:butt;stroke-linejoin:miter;stroke:rgb(0%,0%,0%);stroke-opacity:1;stroke-miterlimit:10;" d="M 128.59375 144.039062 L 152.390625 147.867188 "/>
<path style="fill:none;stroke-width:1.2;stroke-linecap:butt;stroke-linejoin:miter;stroke:rgb(0%,0%,0%);stroke-opacity:1;stroke-miterlimit:10;" d="M 152.390625 147.867188 L 160 138.519531 "/>
<path style="fill:none;stroke-width:1.2;stroke-linecap:butt;stroke-linejoin:miter;stroke:rgb(0%,0%,100%);stroke-opacity:1;stroke-miterlimit:10;" d="M 160 138.519531 L 167.605469 129.171875 "/>
<path style="fill:none;stroke-width:1.2;stroke-linecap:butt;stroke-linejoin:miter;stroke:rgb(0%,0%,100%);stroke-opacity:1;stroke-miterlimit:10;" d="M 167.605469 129.171875 L 179.503906 131.085938 "/>
<path style="fill:none;stroke-width:1.2;stroke-linecap:butt;stroke-linejoin:miter;stroke:rgb(0%,0%,0%);stroke-opacity:1;stroke-miterlimit:10;" d="M 179.503906 131.085938 L 191.402344 132.996094 "/>
<path style=" stroke:none;fill-rule:nonzero;fill:rgb(100%,100%,100%);fill-opacity:1;" d="M 160.605469 123.671875 L 174.605469 123.671875 L 174.605469 134.671875 L 160.605469 134.671875 Z M 160.605469 123.671875 "/>
<g style="fill:rgb(0%,0%,100%);fill-opacity:1;">
  <use xlink:href="#glyph0-2" x="160.605469" y="132.334961"/>
  <use xlink:href="#glyph0-3" x="167.583008" y="132.334961"/>
</g>
<path style="fill:none;stroke-width:1.2;stroke-linecap:butt;stroke-linejoin:miter;stroke:rgb(0%,0%,0%);stroke-opacity:1;stroke-miterlimit:10;" d="M 191.402344 132.996094 L 195.695312 144.257812 "/>
<path style="fill:none;stroke-width:1.2;stroke-linecap:butt;stroke-linejoin:miter;stroke:rgb(0%,0%,100%);stroke-opacity:1;stroke-miterlimit:10;" d="M 195.695312 144.257812 L 199.988281 155.519531 "/>
<path style="fill:none;stroke-width:1.2;stroke-linecap:butt;stroke-linejoin:miter;stroke:rgb(0%,0%,0%);stroke-opacity:1;stroke-miterlimit:10;" d="M 197.558594 133.230469 L 200.992188 142.238281 "/>
<path style="fill:none;stroke-width:1.2;stroke-linecap:butt;stroke-linejoin:miter;stroke:rgb(0%,0%,100%);stroke-opacity:1;stroke-miterlimit:10;" d="M 200.992188 142.238281 L 204.425781 151.25 "/>
<path style="fill:none;stroke-width:1.2;stroke-linecap:butt;stroke-linejoin:miter;stroke:rgb(0%,0%,0%);stroke-opacity:1;stroke-miterlimit:10;" d="M 206.617188 114.300781 L 191.402344 132.996094 "/>
<path style="fill:none;stroke-width:1.2;stroke-linecap:butt;stroke-linejoin:miter;stroke:rgb(0%,0%,100%);stroke-opacity:1;stroke-miterlimit:10;" d="M 199.988281 155.519531 L 211.886719 157.433594 "/>
<path style="fill:none;stroke-width:1.2;stroke-linecap:butt;stroke-linejoin:miter;stroke:rgb(0%,0%,0%);stroke-opacity:1;stroke-miterlimit:10;" d="M 211.886719 157.433594 L 223.785156 159.347656 "/>
<path style=" stroke:none;fill-rule:nonzero;fill:rgb(100%,100%,100%);fill-opacity:1;" d="M 196.988281 150.019531 L 203.988281 150.019531 L 203.988281 161.019531 L 196.988281 161.019531 Z M 196.988281 150.019531 "/>
<g style="fill:rgb(0%,0%,100%);fill-opacity:1;">
  <use xlink:href="#glyph0-2" x="196.988281" y="158.682617"/>
</g>
<path style="fill:none;stroke-width:1.2;stroke-linecap:butt;stroke-linejoin:miter;stroke:rgb(0%,0%,0%);stroke-opacity:1;stroke-miterlimit:10;" d="M 223.785156 159.347656 L 231.390625 150 "/>
<path style="fill:none;stroke-width:1.2;stroke-linecap:butt;stroke-linejoin:miter;stroke:rgb(0%,0%,100%);stroke-opacity:1;stroke-miterlimit:10;" d="M 231.390625 150 L 238.996094 140.652344 "/>
<path style="fill:none;stroke-width:1.2;stroke-linecap:butt;stroke-linejoin:miter;stroke:rgb(0%,0%,0%);stroke-opacity:1;stroke-miterlimit:10;" d="M 220.90625 153.898438 L 226.992188 146.421875 "/>
<path style="fill:none;stroke-width:1.2;stroke-linecap:butt;stroke-linejoin:miter;stroke:rgb(0%,0%,100%);stroke-opacity:1;stroke-miterlimit:10;" d="M 226.992188 146.421875 L 233.078125 138.941406 "/>
<path style="fill:none;stroke-width:1.2;stroke-linecap:butt;stroke-linejoin:miter;stroke:rgb(0%,0%,0%);stroke-opacity:1;stroke-miterlimit:10;" d="M 223.785156 159.347656 L 232.367188 181.871094 "/>
<path style="fill:none;stroke-width:1.2;stroke-linecap:butt;stroke-linejoin:miter;stroke:rgb(0%,0%,100%);stroke-opacity:1;stroke-miterlimit:10;" d="M 238.996094 140.652344 L 234.707031 129.390625 "/>
<path style="fill:none;stroke-width:1.2;stroke-linecap:butt;stroke-linejoin:miter;stroke:rgb(0%,0%,0%);stroke-opacity:1;stroke-miterlimit:10;" d="M 234.707031 129.390625 L 230.414062 118.128906 "/>
<path style=" stroke:none;fill-rule:nonzero;fill:rgb(100%,100%,100%);fill-opacity:1;" d="M 235.996094 135.152344 L 242.996094 135.152344 L 242.996094 146.152344 L 235.996094 146.152344 Z M 235.996094 135.152344 "/>
<g style="fill:rgb(0%,0%,100%);fill-opacity:1;">
  <use xlink:href="#glyph0-2" x="235.996094" y="143.81543"/>
</g>
<path style="fill:none;stroke-width:1.2;stroke-linecap:butt;stroke-linejoin:miter;stroke:rgb(0%,0%,0%);stroke-opacity:1;stroke-miterlimit:10;" d="M 230.414062 118.128906 L 245.625 99.433594 "/>
<path style="fill:none;stroke-width:1.2;stroke-linecap:butt;stroke-linejoin:miter;stroke:rgb(0%,0%,0%);stroke-opacity:1;stroke-miterlimit:10;" d="M 227.535156 112.679688 L 239.707031 97.722656 "/>
<path style="fill:none;stroke-width:1.2;stroke-linecap:butt;stroke-linejoin:miter;stroke:rgb(0%,0%,0%);stroke-opacity:1;stroke-miterlimit:10;" d="M 206.617188 114.300781 L 230.414062 118.128906 "/>
<path style="fill:none;stroke-width:1.2;stroke-linecap:butt;stroke-linejoin:miter;stroke:rgb(0%,0%,0%);stroke-opacity:1;stroke-miterlimit:10;" d="M 245.625 99.433594 L 237.042969 76.910156 "/>
<path style="fill:none;stroke-width:1.2;stroke-linecap:butt;stroke-linejoin:miter;stroke:rgb(0%,0%,0%);stroke-opacity:1;stroke-miterlimit:10;" d="M 237.042969 76.910156 L 213.246094 73.082031 "/>
<path style="fill:none;stroke-width:1.2;stroke-linecap:butt;stroke-linejoin:miter;stroke:rgb(0%,0%,0%);stroke-opacity:1;stroke-miterlimit:10;" d="M 233.761719 82.128906 L 214.722656 79.066406 "/>
<path style="fill:none;stroke-width:1.2;stroke-linecap:butt;stroke-linejoin:miter;stroke:rgb(0%,0%,0%);stroke-opacity:1;stroke-miterlimit:10;" d="M 213.246094 73.082031 L 198.03125 91.777344 "/>
<path style="fill:none;stroke-width:1.2;stroke-linecap:butt;stroke-linejoin:miter;stroke:rgb(0%,0%,0%);stroke-opacity:1;stroke-miterlimit:10;" d="M 198.03125 91.777344 L 206.617188 114.300781 "/>
<path style="fill:none;stroke-width:1.2;stroke-linecap:butt;stroke-linejoin:miter;stroke:rgb(0%,0%,0%);stroke-opacity:1;stroke-miterlimit:10;" d="M 204.1875 92.011719 L 211.054688 110.03125 "/>
<path style="fill:none;stroke-width:1.2;stroke-linecap:butt;stroke-linejoin:miter;stroke:rgb(0%,0%,0%);stroke-opacity:1;stroke-miterlimit:10;" d="M 232.367188 181.871094 L 217.15625 200.566406 "/>
<path style="fill:none;stroke-width:1.2;stroke-linecap:butt;stroke-linejoin:miter;stroke:rgb(0%,0%,0%);stroke-opacity:1;stroke-miterlimit:10;" d="M 235.246094 187.320312 L 223.074219 202.277344 "/>
<path style="fill:none;stroke-width:1.2;stroke-linecap:butt;stroke-linejoin:miter;stroke:rgb(0%,0%,0%);stroke-opacity:1;stroke-miterlimit:10;" d="M 256.164062 185.699219 L 232.367188 181.871094 "/>
<path style="fill:none;stroke-width:1.2;stroke-linecap:butt;stroke-linejoin:miter;stroke:rgb(0%,0%,0%);stroke-opacity:1;stroke-miterlimit:10;" d="M 217.15625 200.566406 L 221.445312 211.828125 "/>
<path style="fill:none;stroke-width:1.2;stroke-linecap:butt;stroke-linejoin:miter;stroke:rgb(0%,0%,100%);stroke-opacity:1;stroke-miterlimit:10;" d="M 221.445312 211.828125 L 225.738281 223.089844 "/>
<path style="fill:none;stroke-width:1.2;stroke-linecap:butt;stroke-linejoin:miter;stroke:rgb(0%,0%,100%);stroke-opacity:1;stroke-miterlimit:10;" d="M 225.738281 223.089844 L 237.636719 225.003906 "/>
<path style="fill:none;stroke-width:1.2;stroke-linecap:butt;stroke-linejoin:miter;stroke:rgb(0%,0%,0%);stroke-opacity:1;stroke-miterlimit:10;" d="M 237.636719 225.003906 L 249.535156 226.917969 "/>
<path style="fill:none;stroke-width:1.2;stroke-linecap:butt;stroke-linejoin:miter;stroke:rgb(0%,0%,100%);stroke-opacity:1;stroke-miterlimit:10;" d="M 229.019531 217.871094 L 238.539062 219.402344 "/>
<path style="fill:none;stroke-width:1.2;stroke-linecap:butt;stroke-linejoin:miter;stroke:rgb(0%,0%,0%);stroke-opacity:1;stroke-miterlimit:10;" d="M 238.539062 219.402344 L 248.058594 220.933594 "/>
<path style=" stroke:none;fill-rule:nonzero;fill:rgb(100%,100%,100%);fill-opacity:1;" d="M 222.738281 217.589844 L 229.738281 217.589844 L 229.738281 228.589844 L 222.738281 228.589844 Z M 222.738281 217.589844 "/>
<g style="fill:rgb(0%,0%,100%);fill-opacity:1;">
  <use xlink:href="#glyph0-2" x="222.738281" y="226.25293"/>
</g>
<path style="fill:none;stroke-width:1.2;stroke-linecap:butt;stroke-linejoin:miter;stroke:rgb(0%,0%,0%);stroke-opacity:1;stroke-miterlimit:10;" d="M 249.535156 226.917969 L 264.75 208.222656 "/>
<path style="fill:none;stroke-width:1.2;stroke-linecap:butt;stroke-linejoin:miter;stroke:rgb(0%,0%,0%);stroke-opacity:1;stroke-miterlimit:10;" d="M 264.75 208.222656 L 256.164062 185.699219 "/>
<path style="fill:none;stroke-width:1.2;stroke-linecap:butt;stroke-linejoin:miter;stroke:rgb(0%,0%,0%);stroke-opacity:1;stroke-miterlimit:10;" d="M 258.59375 207.988281 L 251.726562 189.96875 "/>
</g>
</svg>

<svg xmlns="http://www.w3.org/2000/svg" xmlns:xlink="http://www.w3.org/1999/xlink" width="300pt" height="300pt" viewBox="0 0 300 300"><defs><symbol overflow="visible"><path d="M.453 1.594v-7.938h4.5v7.938zm.5-.5h3.5v-6.938h-3.5zm0 0"/></symbol><symbol overflow="visible" id="a"><path d="M3.547-5.953c-.65 0-1.164.242-1.547.72-.375.48-.563 1.13-.563 1.952 0 .835.188 1.49.563 1.967.383.48.898.72 1.547.72.644 0 1.156-.24 1.53-.72.376-.476.564-1.132.564-1.968 0-.822-.187-1.474-.562-1.954-.375-.477-.887-.72-1.53-.72zm0-.734c.914 0 1.648.312 2.203.937.55.617.828 1.438.828 2.47 0 1.042-.277 1.87-.828 2.483-.555.617-1.29.922-2.203.922-.93 0-1.668-.305-2.22-.922C.774-1.41.5-2.237.5-3.28c0-1.033.273-1.853.828-2.47.55-.625 1.29-.938 2.22-.938zm0 0"/></symbol><symbol overflow="visible" id="b"><path d="M.89-6.563H2.08l2.906 5.485v-5.484h.86V0H4.656L1.75-5.484V0H.89zm0 0"/></symbol><symbol overflow="visible" id="c"><path d="M.89-6.563h.876v2.688H5v-2.688h.89V0H5v-3.125H1.766V0H.89zm0 0"/></symbol></defs><g><path fill="#fff" d="M0 0h300v300H0z"/><path d="M43.94 105.113l-4.346 11.24" stroke-width="1.2" stroke="#000" stroke-miterlimit="10" fill="none"/><path d="M39.594 116.352l-4.344 11.242M35.25 127.594l7.563 9.383" stroke-width="1.2" stroke="#f00" stroke-miterlimit="10" fill="none"/><path d="M42.813 136.977l7.562 9.386" stroke-width="1.2" stroke="#000" stroke-miterlimit="10" fill="none"/><path d="M31.25 122.094h8v11h-8zm0 0" fill="#fff"/><use xlink:href="#a" x="31.25" y="130.757" fill="#f00"/><path d="M50.375 146.363l23.816-3.715M53.63 151.594l19.054-2.973M41.684 168.844l8.69-22.48M74.19 142.648l15.123 18.766M89.313 161.414l-8.692 22.484M93.734 165.707l-6.953 17.988M113.38 162.734l-24.067-1.32M80.62 183.898l-23.81 3.71M80.62 183.898l9.35 7.606" stroke-width="1.2" stroke="#000" stroke-miterlimit="10" fill="none"/><path d="M89.97 191.504l9.346 7.605" stroke-width="1.2" stroke="#00f" stroke-miterlimit="10" fill="none"/><path d="M56.81 187.61l-15.126-18.766M59.71 182.176l-12.1-15.016" stroke-width="1.2" stroke="#000" stroke-miterlimit="10" fill="none"/><path d="M99.316 199.11l10.125-6.54" stroke-width="1.2" stroke="#00f" stroke-miterlimit="10" fill="none"/><path d="M109.44 192.57l10.123-6.54" stroke-width="1.2" stroke="#000" stroke-miterlimit="10" fill="none"/><path d="M92.316 193.61h14v11h-14zm0 0" fill="#fff"/><g fill="#00f"><use xlink:href="#b" x="92.316" y="202.272"/><use xlink:href="#c" x="99.294" y="202.272"/></g><path d="M119.563 186.03l-6.184-23.296M113.465 185.156l-4.95-18.636M113.38 162.734l15.214-18.695M128.594 144.04l23.797 3.827M152.39 147.867l7.61-9.347" stroke-width="1.2" stroke="#000" stroke-miterlimit="10" fill="none"/><path d="M160 138.52l7.605-9.348M167.605 129.172l11.9 1.914" stroke-width="1.2" stroke="#00f" stroke-miterlimit="10" fill="none"/><path d="M179.504 131.086l11.898 1.91" stroke-width="1.2" stroke="#000" stroke-miterlimit="10" fill="none"/><path d="M160.605 123.672h14v11h-14zm0 0" fill="#fff"/><g fill="#00f"><use xlink:href="#b" x="160.605" y="132.335"/><use xlink:href="#c" x="167.583" y="132.335"/></g><path d="M191.402 132.996l4.293 11.262" stroke-width="1.2" stroke="#000" stroke-miterlimit="10" fill="none"/><path d="M195.695 144.258l4.293 11.262" stroke-width="1.2" stroke="#00f" stroke-miterlimit="10" fill="none"/><path d="M197.56 133.23l3.432 9.008" stroke-width="1.2" stroke="#000" stroke-miterlimit="10" fill="none"/><path d="M200.992 142.238l3.434 9.012" stroke-width="1.2" stroke="#00f" stroke-miterlimit="10" fill="none"/><path d="M206.617 114.3l-15.215 18.696" stroke-width="1.2" stroke="#000" stroke-miterlimit="10" fill="none"/><path d="M199.988 155.52l11.9 1.914" stroke-width="1.2" stroke="#00f" stroke-miterlimit="10" fill="none"/><path d="M211.887 157.434l11.898 1.914" stroke-width="1.2" stroke="#000" stroke-miterlimit="10" fill="none"/><path d="M196.988 150.02h7v11h-7zm0 0" fill="#fff"/><use xlink:href="#b" x="196.988" y="158.683" fill="#00f"/><path d="M223.785 159.348L231.39 150" stroke-width="1.2" stroke="#000" stroke-miterlimit="10" fill="none"/><path d="M231.39 150l7.606-9.348" stroke-width="1.2" stroke="#00f" stroke-miterlimit="10" fill="none"/><path d="M220.906 153.898l6.086-7.476" stroke-width="1.2" stroke="#000" stroke-miterlimit="10" fill="none"/><path d="M226.992 146.422l6.086-7.48" stroke-width="1.2" stroke="#00f" stroke-miterlimit="10" fill="none"/><path d="M223.785 159.348l8.582 22.523" stroke-width="1.2" stroke="#000" stroke-miterlimit="10" fill="none"/><path d="M238.996 140.652l-4.29-11.26" stroke-width="1.2" stroke="#00f" stroke-miterlimit="10" fill="none"/><path d="M234.707 129.39l-4.293-11.26" stroke-width="1.2" stroke="#000" stroke-miterlimit="10" fill="none"/><path d="M235.996 135.152h7v11h-7zm0 0" fill="#fff"/><use xlink:href="#b" x="235.996" y="143.815" fill="#00f"/><path d="M230.414 118.13l15.21-18.696M227.535 112.68l12.172-14.957M206.617 114.3l23.797 3.83M245.625 99.434l-8.582-22.524M237.043 76.91l-23.797-3.828M233.762 82.13l-19.04-3.064M213.246 73.082L198.03 91.777M198.03 91.777l8.587 22.524M204.188 92.012l6.867 18.02M232.367 181.87l-15.21 18.696M235.246 187.32l-12.172 14.957M256.164 185.7l-23.797-3.83M217.156 200.566l4.29 11.262" stroke-width="1.2" stroke="#000" stroke-miterlimit="10" fill="none"/><path d="M221.445 211.828l4.293 11.262M225.738 223.09l11.9 1.914" stroke-width="1.2" stroke="#00f" stroke-miterlimit="10" fill="none"/><path d="M237.637 225.004l11.898 1.914" stroke-width="1.2" stroke="#000" stroke-miterlimit="10" fill="none"/><path d="M229.02 217.87l9.52 1.532" stroke-width="1.2" stroke="#00f" stroke-miterlimit="10" fill="none"/><path d="M238.54 219.402l9.52 1.532" stroke-width="1.2" stroke="#000" stroke-miterlimit="10" fill="none"/><path d="M222.738 217.59h7v11h-7zm0 0" fill="#fff"/><use xlink:href="#b" x="222.738" y="226.253" fill="#00f"/><path d="M249.535 226.918l15.215-18.695M264.75 208.223l-8.586-22.524M258.594 207.988l-6.867-18.02" stroke-width="1.2" stroke="#000" stroke-miterlimit="10" fill="none"/></g></svg>
